flaticon/business/barcode-1.svg

<svg xmlns="http://www.w3.org/2000/svg" width="32" height="32" viewBox="0 0 24 24">
    <path d="M2.398438 19.398438L2.398438 12.601562C2.398438 12.378906 2.222656 12.199219 2 12.199219 1.777344 12.199219 1.601562 12.378906 1.601562 12.601562L1.601562 19.398438C1.601562 19.621094 1.777344 19.800781 2 19.800781 2.222656 19.800781 2.398438 19.621094 2.398438 19.398438zM22.398438 19.398438L22.398438 12.601562C22.398438 12.378906 22.222656 12.199219 22 12.199219 21.777344 12.199219 21.601562 12.378906 21.601562 12.601562L21.601562 19.398438C21.601562 19.621094 21.777344 19.800781 22 19.800781 22.222656 19.800781 22.398438 19.621094 22.398438 19.398438zM3.601562 12.199219C3.378906 12.199219 3.199219 12.378906 3.199219 12.601562L3.199219 16.199219C3.199219 16.421875 3.378906 16.601562 3.601562 16.601562 3.820312 16.601562 4 16.421875 4 16.199219L4 12.601562C4 12.378906 3.820312 12.199219 3.601562 12.199219zM4.800781 12.199219C4.578125 12.199219 4.398438 12.378906 4.398438 12.601562L4.398438 16.199219C4.398438 16.421875 4.578125 16.601562 4.800781 16.601562 5.019531 16.601562 5.199219 16.421875 5.199219 16.199219L5.199219 12.601562C5.199219 12.378906 5.019531 12.199219 4.800781 12.199219zM7.199219 16.199219L7.199219 12.601562C7.199219 12.378906 7.019531 12.199219 6.800781 12.199219 6.578125 12.199219 6.398438 12.378906 6.398438 12.601562L6.398438 16.199219C6.398438 16.421875 6.578125 16.601562 6.800781 16.601562 7.019531 16.601562 7.199219 16.421875 7.199219 16.199219zM8.398438 16.199219L8.398438 12.601562C8.398438 12.378906 8.222656 12.199219 8 12.199219 7.777344 12.199219 7.601562 12.378906 7.601562 12.601562L7.601562 16.199219C7.601562 16.421875 7.777344 16.601562 8 16.601562 8.222656 16.601562 8.398438 16.421875 8.398438 16.199219zM9.601562 16.199219L9.601562 12.601562C9.601562 12.378906 9.421875 12.199219 9.199219 12.199219 8.980469 12.199219 8.800781 12.378906 8.800781 12.601562L8.800781 16.199219C8.800781 16.421875 8.980469 16.601562 9.199219 16.601562 9.421875 16.601562 9.601562 16.421875 9.601562 16.199219zM12 16.199219L12 12.601562C12 12.378906 11.820312 12.199219 11.601562 12.199219 11.378906 12.199219 11.199219 12.378906 11.199219 12.601562L11.199219 16.199219C11.199219 16.421875 11.378906 16.601562 11.601562 16.601562 11.820312 16.601562 12 16.421875 12 16.199219zM14 12.601562C14 12.378906 13.820312 12.199219 13.601562 12.199219 13.378906 12.199219 13.199219 12.378906 13.199219 12.601562L13.199219 16.199219C13.199219 16.421875 13.378906 16.601562 13.601562 16.601562 13.820312 16.601562 14 16.421875 14 16.199219zM15.199219 12.601562C15.199219 12.378906 15.019531 12.199219 14.800781 12.199219 14.578125 12.199219 14.398438 12.378906 14.398438 12.601562L14.398438 16.199219C14.398438 16.421875 14.578125 16.601562 14.800781 16.601562 15.019531 16.601562 15.199219 16.421875 15.199219 16.199219zM16.800781 12.199219C16.578125 12.199219 16.398438 12.378906 16.398438 12.601562L16.398438 16.199219C16.398438 16.421875 16.578125 16.601562 16.800781 16.601562 17.019531 16.601562 17.199219 16.421875 17.199219 16.199219L17.199219 12.601562C17.199219 12.378906 17.019531 12.199219 16.800781 12.199219zM18 12.199219C17.777344 12.199219 17.601562 12.378906 17.601562 12.601562L17.601562 16.199219C17.601562 16.421875 17.777344 16.601562 18 16.601562 18.222656 16.601562 18.398438 16.421875 18.398438 16.199219L18.398438 12.601562C18.398438 12.378906 18.222656 12.199219 18 12.199219zM20.398438 16.601562C20.621094 16.601562 20.800781 16.421875 20.800781 16.199219L20.800781 12.601562C20.800781 12.378906 20.621094 12.199219 20.398438 12.199219 20.179688 12.199219 20 12.378906 20 12.601562L20 16.199219C20 16.421875 20.179688 16.601562 20.398438 16.601562zM1.601562 4.601562L1.601562 10.199219C1.601562 10.421875 1.777344 10.601562 2 10.601562 2.222656 10.601562 2.398438 10.421875 2.398438 10.199219L2.398438 4.601562C2.398438 4.378906 2.222656 4.199219 2 4.199219 1.777344 4.199219 1.601562 4.378906 1.601562 4.601562zM22.398438 10.199219L22.398438 4.601562C22.398438 4.378906 22.222656 4.199219 22 4.199219 21.777344 4.199219 21.601562 4.378906 21.601562 4.601562L21.601562 10.199219C21.601562 10.421875 21.777344 10.601562 22 10.601562 22.222656 10.601562 22.398438 10.421875 22.398438 10.199219zM3.199219 10.199219C3.199219 10.421875 3.378906 10.601562 3.601562 10.601562 3.820312 10.601562 4 10.421875 4 10.199219L4 4.601562C4 4.378906 3.820312 4.199219 3.601562 4.199219 3.378906 4.199219 3.199219 4.378906 3.199219 4.601562zM4.800781 10.601562C5.019531 10.601562 5.199219 10.421875 5.199219 10.199219L5.199219 4.601562C5.199219 4.378906 5.019531 4.199219 4.800781 4.199219 4.578125 4.199219 4.398438 4.378906 4.398438 4.601562L4.398438 10.199219C4.398438 10.421875 4.578125 10.601562 4.800781 10.601562zM6.800781 10.601562C7.019531 10.601562 7.199219 10.421875 7.199219 10.199219L7.199219 4.601562C7.199219 4.378906 7.019531 4.199219 6.800781 4.199219 6.578125 4.199219 6.398438 4.378906 6.398438 4.601562L6.398438 10.199219C6.398438 10.421875 6.578125 10.601562 6.800781 10.601562zM8 10.601562C8.222656 10.601562 8.398438 10.421875 8.398438 10.199219L8.398438 4.601562C8.398438 4.378906 8.222656 4.199219 8 4.199219 7.777344 4.199219 7.601562 4.378906 7.601562 4.601562L7.601562 10.199219C7.601562 10.421875 7.777344 10.601562 8 10.601562zM9.199219 10.601562C9.421875 10.601562 9.601562 10.421875 9.601562 10.199219L9.601562 4.601562C9.601562 4.378906 9.421875 4.199219 9.199219 4.199219 8.980469 4.199219 8.800781 4.378906 8.800781 4.601562L8.800781 10.199219C8.800781 10.421875 8.980469 10.601562 9.199219 10.601562zM11.601562 10.601562C11.820312 10.601562 12 10.421875 12 10.199219L12 4.601562C12 4.378906 11.820312 4.199219 11.601562 4.199219 11.378906 4.199219 11.199219 4.378906 11.199219 4.601562L11.199219 10.199219C11.199219 10.421875 11.378906 10.601562 11.601562 10.601562zM13.601562 10.601562C13.820312 10.601562 14 10.421875 14 10.199219L14 4.601562C14 4.378906 13.820312 4.199219 13.601562 4.199219 13.378906 4.199219 13.199219 4.378906 13.199219 4.601562L13.199219 10.199219C13.199219 10.421875 13.378906 10.601562 13.601562 10.601562zM14.800781 10.601562C15.019531 10.601562 15.199219 10.421875 15.199219 10.199219L15.199219 4.601562C15.199219 4.378906 15.019531 4.199219 14.800781 4.199219 14.578125 4.199219 14.398438 4.378906 14.398438 4.601562L14.398438 10.199219C14.398438 10.421875 14.578125 10.601562 14.800781 10.601562zM16.800781 10.601562C17.019531 10.601562 17.199219 10.421875 17.199219 10.199219L17.199219 4.601562C17.199219 4.378906 17.019531 4.199219 16.800781 4.199219 16.578125 4.199219 16.398438 4.378906 16.398438 4.601562L16.398438 10.199219C16.398438 10.421875 16.578125 10.601562 16.800781 10.601562zM18 10.601562C18.222656 10.601562 18.398438 10.421875 18.398438 10.199219L18.398438 4.601562C18.398438 4.378906 18.222656 4.199219 18 4.199219 17.777344 4.199219 17.601562 4.378906 17.601562 4.601562L17.601562 10.199219C17.601562 10.421875 17.777344 10.601562 18 10.601562zM20.398438 10.601562C20.621094 10.601562 20.800781 10.421875 20.800781 10.199219L20.800781 4.601562C20.800781 4.378906 20.621094 4.199219 20.398438 4.199219 20.179688 4.199219 20 4.378906 20 4.601562L20 10.199219C20 10.421875 20.179688 10.601562 20.398438 10.601562zM3.601562 17.800781C3.378906 17.800781 3.199219 17.980469 3.199219 18.199219L3.199219 18.601562C3.199219 18.820312 3.378906 19 3.601562 19 3.820312 19 4 18.820312 4 18.601562L4 18.199219C4 17.980469 3.820312 17.800781 3.601562 17.800781zM4.800781 17.800781C4.578125 17.800781 4.398438 17.980469 4.398438 18.199219L4.398438 18.601562C4.398438 18.820312 4.578125 19 4.800781 19 5.019531 19 5.199219 18.820312 5.199219 18.601562L5.199219 18.199219C5.199219 17.980469 5.019531 17.800781 4.800781 17.800781zM6 17.800781C5.777344 17.800781 5.601562 17.980469 5.601562 18.199219L5.601562 18.601562C5.601562 18.820312 5.777344 19 6 19 6.222656 19 6.398438 18.820312 6.398438 18.601562L6.398438 18.199219C6.398438 17.980469 6.222656 17.800781 6 17.800781zM7.199219 17.800781C6.980469 17.800781 6.800781 17.980469 6.800781 18.199219L6.800781 18.601562C6.800781 18.820312 6.980469 19 7.199219 19 7.421875 19 7.601562 18.820312 7.601562 18.601562L7.601562 18.199219C7.601562 17.980469 7.421875 17.800781 7.199219 17.800781zM8.398438 17.800781C8.179688 17.800781 8 17.980469 8 18.199219L8 18.601562C8 18.820312 8.179688 19 8.398438 19 8.621094 19 8.800781 18.820312 8.800781 18.601562L8.800781 18.199219C8.800781 17.980469 8.621094 17.800781 8.398438 17.800781zM9.601562 17.800781C9.378906 17.800781 9.199219 17.980469 9.199219 18.199219L9.199219 18.601562C9.199219 18.820312 9.378906 19 9.601562 19 9.820312 19 10 18.820312 10 18.601562L10 18.199219C10 17.980469 9.820312 17.800781 9.601562 17.800781zM10.800781 17.800781C10.578125 17.800781 10.398438 17.980469 10.398438 18.199219L10.398438 18.601562C10.398438 18.820312 10.578125 19 10.800781 19 11.019531 19 11.199219 18.820312 11.199219 18.601562L11.199219 18.199219C11.199219 17.980469 11.019531 17.800781 10.800781 17.800781zM12 17.800781C11.777344 17.800781 11.601562 17.980469 11.601562 18.199219L11.601562 18.601562C11.601562 18.820312 11.777344 19 12 19 12.222656 19 12.398438 18.820312 12.398438 18.601562L12.398438 18.199219C12.398438 17.980469 12.222656 17.800781 12 17.800781zM13.199219 17.800781C12.980469 17.800781 12.800781 17.980469 12.800781 18.199219L12.800781 18.601562C12.800781 18.820312 12.980469 19 13.199219 19 13.421875 19 13.601562 18.820312 13.601562 18.601562L13.601562 18.199219C13.601562 17.980469 13.421875 17.800781 13.199219 17.800781zM14.398438 17.800781C14.179688 17.800781 14 17.980469 14 18.199219L14 18.601562C14 18.820312 14.179688 19 14.398438 19 14.621094 19 14.800781 18.820312 14.800781 18.601562L14.800781 18.199219C14.800781 17.980469 14.621094 17.800781 14.398438 17.800781zM15.601562 17.800781C15.378906 17.800781 15.199219 17.980469 15.199219 18.199219L15.199219 18.601562C15.199219 18.820312 15.378906 19 15.601562 19 15.820312 19 16 18.820312 16 18.601562L16 18.199219C16 17.980469 15.820312 17.800781 15.601562 17.800781zM16.800781 17.800781C16.578125 17.800781 16.398438 17.980469 16.398438 18.199219L16.398438 18.601562C16.398438 18.820312 16.578125 19 16.800781 19 17.019531 19 17.199219 18.820312 17.199219 18.601562L17.199219 18.199219C17.199219 17.980469 17.019531 17.800781 16.800781 17.800781zM18 17.800781C17.777344 17.800781 17.601562 17.980469 17.601562 18.199219L17.601562 18.601562C17.601562 18.820312 17.777344 19 18 19 18.222656 19 18.398438 18.820312 18.398438 18.601562L18.398438 18.199219C18.398438 17.980469 18.222656 17.800781 18 17.800781zM19.199219 17.800781C18.980469 17.800781 18.800781 17.980469 18.800781 18.199219L18.800781 18.601562C18.800781 18.820312 18.980469 19 19.199219 19 19.421875 19 19.601562 18.820312 19.601562 18.601562L19.601562 18.199219C19.601562 17.980469 19.421875 17.800781 19.199219 17.800781zM20.800781 18.199219C20.800781 17.980469 20.621094 17.800781 20.398438 17.800781 20.179688 17.800781 20 17.980469 20 18.199219L20 18.601562C20 18.820312 20.179688 19 20.398438 19 20.621094 19 20.800781 18.820312 20.800781 18.601562zM3.199219 21.398438L.800781 21.398438.800781 19.398438C.800781 19.179688.621094 19 .398438 19 .179688 19 0 19.179688 0 19.398438L0 22.199219 3.199219 22.199219C3.421875 22.199219 3.601562 22.019531 3.601562 21.800781 3.601562 21.578125 3.421875 21.398438 3.199219 21.398438zM23.601562 19C23.378906 19 23.199219 19.179688 23.199219 19.398438L23.199219 21.398438 21.199219 21.398438C20.980469 21.398438 20.800781 21.578125 20.800781 21.800781 20.800781 22.019531 20.980469 22.199219 21.199219 22.199219L24 22.199219 24 19.398438C24 19.179688 23.820312 19 23.601562 19zM20.800781 1.800781C20.578125 1.800781 20.398438 1.980469 20.398438 2.199219 20.398438 2.421875 20.578125 2.601562 20.800781 2.601562L23.199219 2.601562 23.199219 4.601562C23.199219 4.820312 23.378906 5 23.601562 5 23.820312 5 24 4.820312 24 4.601562L24 1.800781zM.398438 5C.621094 5 .800781 4.820312.800781 4.601562L.800781 2.601562 2.800781 2.601562C3.019531 2.601562 3.199219 2.421875 3.199219 2.199219 3.199219 1.980469 3.019531 1.800781 2.800781 1.800781L0 1.800781 0 4.601562C0 4.820312.179688 5 .398438 5zM23.601562 11L.398438 11C.179688 11 0 11.179688 0 11.398438 0 11.621094.179688 11.800781.398438 11.800781L23.601562 11.800781C23.820312 11.800781 24 11.621094 24 11.398438 24 11.179688 23.820312 11 23.601562 11zM23.601562 11"/>
</svg>

<svg xmlns="http://www.w3.org/2000/svg" width="32" height="32" viewBox="0 0 24 24">
    <path d="M2.398 19.398v-6.796a.398.398 0 1 0-.796 0v6.796a.398.398 0 1 0 .796 0zm0 0M22.398 19.398v-6.796a.398.398 0 1 0-.796 0v6.796a.398.398 0 1 0 .796 0zm0 0M3.602 12.2a.402.402 0 0 0-.403.402v3.597a.401.401 0 0 0 .8 0l.001-3.597a.401.401 0 0 0-.398-.403zm0 0M4.8 12.2a.402.402 0 0 0-.402.402v3.597a.401.401 0 0 0 .8 0l.001-3.597a.401.401 0 0 0-.398-.403zm0 0M7.2 16.2v-3.598a.401.401 0 1 0-.802 0v3.597a.401.401 0 0 0 .8 0zm0 0M8.398 16.2v-3.598a.398.398 0 1 0-.796 0v3.597a.398.398 0 1 0 .796 0zm0 0M9.602 16.2v-3.598a.401.401 0 0 0-.8 0L8.8 16.199a.401.401 0 1 0 .8 0zm0 0M12 16.2v-3.598a.401.401 0 1 0-.8 0v3.597a.401.401 0 0 0 .8 0zm0 0M14 12.602a.401.401 0 1 0-.8 0v3.597a.401.401 0 0 0 .8 0zm0 0M15.2 12.602a.401.401 0 1 0-.802 0v3.597a.401.401 0 0 0 .8 0zm0 0M16.8 12.2a.402.402 0 0 0-.402.402v3.597a.401.401 0 0 0 .8 0l.001-3.597a.401.401 0 0 0-.398-.403zm0 0M18 12.2a.398.398 0 0 0-.398.402v3.597a.398.398 0 1 0 .796 0v-3.597a.398.398 0 0 0-.398-.403zm0 0M20.398 16.602c.223 0 .403-.18.403-.403v-3.597a.401.401 0 0 0-.8 0l-.001 3.597c0 .223.18.403.398.403zm0 0M1.602 4.602v5.597a.398.398 0 1 0 .796 0V4.602a.398.398 0 1 0-.796 0zm0 0M22.398 10.2V4.601a.398.398 0 1 0-.796 0v5.597a.398.398 0 1 0 .796 0zm0 0M3.2 10.2a.401.401 0 0 0 .8 0V4.601a.401.401 0 1 0-.8 0zm0 0M4.8 10.602c.22 0 .4-.18.4-.403V4.602a.401.401 0 1 0-.802 0v5.597c0 .223.18.403.403.403zm0 0M6.8 10.602c.22 0 .4-.18.4-.403V4.602a.401.401 0 1 0-.802 0v5.597c0 .223.18.403.403.403zm0 0M8 10.602c.223 0 .398-.18.398-.403V4.602a.398.398 0 1 0-.796 0v5.597c0 .223.175.403.398.403zm0 0M9.2 10.602c.222 0 .402-.18.402-.403V4.602a.401.401 0 0 0-.8 0L8.8 10.199c0 .223.18.403.398.403zm0 0M11.602 10.602c.218 0 .398-.18.398-.403V4.602a.401.401 0 1 0-.8 0v5.597c0 .223.179.403.402.403zm0 0M13.602 10.602c.218 0 .398-.18.398-.403V4.602a.401.401 0 1 0-.8 0v5.597c0 .223.179.403.402.403zm0 0M14.8 10.602c.22 0 .4-.18.4-.403V4.602a.401.401 0 1 0-.802 0v5.597c0 .223.18.403.403.403zm0 0M16.8 10.602c.22 0 .4-.18.4-.403V4.602a.401.401 0 1 0-.802 0v5.597c0 .223.18.403.403.403zm0 0M18 10.602c.223 0 .398-.18.398-.403V4.602a.398.398 0 1 0-.796 0v5.597c0 .223.175.403.398.403zm0 0M20.398 10.602c.223 0 .403-.18.403-.403V4.602a.401.401 0 0 0-.8 0l-.001 5.597c0 .223.18.403.398.403zm0 0M3.602 17.8a.401.401 0 0 0-.403.4v.402a.401.401 0 0 0 .801 0v-.403a.4.4 0 0 0-.398-.398zm0 0M4.8 17.8a.401.401 0 0 0-.402.4v.402a.401.401 0 0 0 .801 0v-.403a.4.4 0 0 0-.398-.398zm0 0M6 17.8a.398.398 0 0 0-.398.4v.402a.398.398 0 1 0 .796 0v-.403A.398.398 0 0 0 6 17.801zm0 0M7.2 17.8a.4.4 0 0 0-.4.4v.402a.4.4 0 0 0 .802 0v-.403a.401.401 0 0 0-.403-.398zm0 0M8.398 17.8a.4.4 0 0 0-.398.4v.402a.4.4 0 0 0 .8 0v-.403a.401.401 0 0 0-.402-.398zm0 0M9.602 17.8a.401.401 0 0 0-.403.4v.402a.401.401 0 0 0 .801 0v-.403a.4.4 0 0 0-.398-.398zm0 0M10.8 17.8a.401.401 0 0 0-.402.4v.402a.401.401 0 0 0 .801 0v-.403a.4.4 0 0 0-.398-.398zm0 0M12 17.8a.398.398 0 0 0-.398.4v.402a.398.398 0 1 0 .796 0v-.403a.398.398 0 0 0-.398-.398zm0 0M13.2 17.8a.4.4 0 0 0-.4.4v.402a.4.4 0 0 0 .802 0v-.403a.401.401 0 0 0-.403-.398zm0 0M14.398 17.8a.4.4 0 0 0-.398.4v.402a.4.4 0 0 0 .8 0v-.403a.401.401 0 0 0-.402-.398zm0 0M15.602 17.8a.401.401 0 0 0-.403.4v.402a.401.401 0 0 0 .801 0v-.403a.4.4 0 0 0-.398-.398zm0 0M16.8 17.8a.401.401 0 0 0-.402.4v.402a.401.401 0 0 0 .801 0v-.403a.4.4 0 0 0-.398-.398zm0 0M18 17.8a.398.398 0 0 0-.398.4v.402a.398.398 0 1 0 .796 0v-.403a.398.398 0 0 0-.398-.398zm0 0M19.2 17.8a.4.4 0 0 0-.4.4v.402a.4.4 0 0 0 .802 0v-.403a.401.401 0 0 0-.403-.398zm0 0M20.8 18.2a.401.401 0 0 0-.8 0v.402a.4.4 0 0 0 .8 0zm0 0M3.2 21.398H.8v-2a.401.401 0 0 0-.8 0V22.2h3.2a.401.401 0 1 0 0-.8zm0 0M23.602 19a.401.401 0 0 0-.403.398v2h-2a.401.401 0 0 0 0 .801H24v-2.8a.4.4 0 0 0-.398-.399zm0 0M20.8 1.8a.401.401 0 1 0 0 .802h2.4v2a.401.401 0 0 0 .8 0V1.8zm0 0M.398 5c.223 0 .403-.18.403-.398v-2h2a.401.401 0 0 0 0-.801H0v2.8A.4.4 0 0 0 .398 5zm0 0M23.602 11H.398a.4.4 0 0 0 0 .8h23.204a.401.401 0 0 0 0-.8zm0 0"/>
</svg>
